X:68
%%score 1 2
T:The Cushion Dance
M:3/4
L:1/4
K:G
V:1 clef-treble
V:2 clef-bass octave=-1
V:1
!p!([DB][B,G])[DB]|B>BA&(GE)F|GGF&FE/D/C|[B,G]3|"_f"[DB][B,G][DB]|B>BA&(GE)F|
V:2
(G,G)F|(EC)D|B,CD|ED/C/B,/A,/|(G,G)F|(EC)D|
V:1
GGF&FE/D/C|[B,G]3||"_p"[DFA]AA|d>cB&[DA]2x|A>GF/E/&EC2|[A,F]D2|"_f"[DFA]AA|
V:2
B,CD|G,B,G,||D,3|FDE|CA,2|D>A,F,/A,/|D,3|
V:1
d>cB&[DA]2x|A>GF/E/&EC2|[A,F]D2||"_p"([DB][B,G])[DB]|B>BA&(GE)F|GGF&FE/D/C|[B,G]3|
V:2
FDE|CA,2|D>CB,/A,/||(G,G)F|(EC)D|B,CD|ED/C/B,/A,/|
V:1
([DB][B,G])[DB]|B>BA&(GE)F|GGF&FE/D/C|[B,G]3||[M:6/8][BDG]G/G[FA]/|G/>G/A/ G/>A/B/&Bx2|
V:2
(G,G)F|(EC)D|B,CD|G,3||[M:6/8]G,3/D,3/|G3/E3/|
V:1
A/>B/c/ B/>A/B/&Dx/Dx/|[FA]3/-[FA]A/|[FA]A/ A/>B/c/&x3/[DF]x/|[DGd]d/[EAd]c/|B/>A/G/B[CFA]/&D3/2-Dx/|[B,G]3|
V:2
F3/G3/|dA/D3/|D3/C3/|B,3/A,3/|D3/D3/|GD/G,3/|

